Catalina-dark/places/16/mail-outbox.svg

<?xml version="1.0" encoding="UTF-8" standalone="no"?>
<!-- Created with Inkscape (http://www.inkscape.org/) -->

<svg
   xmlns:dc="http://purl.org/dc/elements/1.1/"
   xmlns:cc="http://creativecommons.org/ns#"
   xmlns:rdf="http://www.w3.org/1999/02/22-rdf-syntax-ns#"
   xmlns:svg="http://www.w3.org/2000/svg"
   xmlns="http://www.w3.org/2000/svg"
   xmlns:sodipodi="http://sodipodi.sourceforge.net/DTD/sodipodi-0.dtd"
   xmlns:inkscape="http://www.inkscape.org/namespaces/inkscape"
   id="svg7384"
   sodipodi:docname="mail-outbox.svg"
   version="1.1"
   inkscape:version="0.92.4 5da689c313, 2019-01-14"
   height="36"
   width="36">
  <metadata
     id="metadata90">
    <rdf:RDF>
      <cc:Work
         rdf:about="">
        <dc:format>image/svg+xml</dc:format>
        <dc:type
           rdf:resource="http://purl.org/dc/dcmitype/StillImage" />
        <dc:title>Gnome Symbolic Icon Theme</dc:title>
      </cc:Work>
    </rdf:RDF>
  </metadata>
  <sodipodi:namedview
     inkscape:cy="-10.143853"
     pagecolor="#ffffff"
     borderopacity="1"
     showborder="true"
     inkscape:bbox-paths="false"
     guidetolerance="10"
     inkscape:window-width="1033"
     showguides="true"
     inkscape:object-nodes="true"
     inkscape:snap-bbox="true"
     inkscape:pageshadow="2"
     inkscape:guide-bbox="true"
     inkscape:snap-nodes="true"
     bordercolor="#666666"
     objecttolerance="10"
     id="namedview88"
     showgrid="false"
     inkscape:window-maximized="0"
     inkscape:window-x="327"
     inkscape:snap-global="true"
     inkscape:window-y="69"
     gridtolerance="10"
     inkscape:window-height="641"
     inkscape:snap-to-guides="true"
     inkscape:current-layer="layer13"
     inkscape:zoom="2.8284271"
     inkscape:cx="-10.619502"
     inkscape:snap-grids="true"
     inkscape:pageopacity="1">
    <inkscape:grid
       spacingx="1"
       spacingy="1"
       id="grid4866"
       empspacing="2"
       enabled="true"
       type="xygrid"
       snapvisiblegridlinesonly="true"
       visible="true"
       originx="0"
       originy="0" />
  </sodipodi:namedview>
  <title
     id="title9167">Gnome Symbolic Icon Theme</title>
  <defs
     id="defs7386" />
  <g
     inkscape:label="status"
     transform="translate(-442,-156)"
     inkscape:groupmode="layer"
     id="layer9"
     style="display:inline" />
  <g
     inkscape:label="devices"
     transform="translate(-442,-156)"
     inkscape:groupmode="layer"
     id="layer10" />
  <g
     inkscape:label="apps"
     transform="translate(-442,-156)"
     inkscape:groupmode="layer"
     id="layer11" />
  <g
     inkscape:label="actions"
     transform="translate(-442,-156)"
     inkscape:groupmode="layer"
     id="layer12" />
  <g
     inkscape:label="places"
     transform="translate(-442,-156)"
     inkscape:groupmode="layer"
     id="layer13">
    <path
       style="opacity:1;fill:#e8f1f5;fill-opacity:0.85207099;stroke:none"
       d="M 9.125 6 C 7.94775 6 6.76725 7.23212 6 8.125 L 0.56445312 14.451172 C 0.17565312 14.839972 0 15.21506 0 15.875 L 0 28.875 C 0 30.05225 0.94775 31 2.125 31 L 33.875 31 C 35.05225 31 36 30.05225 36 28.875 L 36 16.21875 C 36 15.68625 35.833328 15.344501 35.580078 14.988281 L 30 8.125 C 29.25737 7.21154 28.036635 6 26.859375 6 L 26.236328 6 C 26.632062 6.606342 26.814039 7.3043415 26.794922 8 L 26.900391 8 C 27.491731 8 27.961451 8.3548086 28.332031 8.7929688 L 32.912109 14.634766 C 33.718309 15.551446 33.587938 16 32.554688 16 L 25.5 16 L 23.5 16 C 23.5 19.03757 21.03757 21.5 18 21.5 C 14.96243 21.5 12.5 19.03757 12.5 16 L 10.5 16 L 3.0410156 16 C 2.4496756 16 2.12398 15.476214 2.9375 14.496094 L 7.46875 9.0351562 C 8.0149784 8.3770712 8.6573687 8.0939363 9.2070312 8.0292969 C 9.181731 7.3240063 9.3623742 6.6148673 9.7636719 6 L 9.125 6 z M 2 18 L 10.779297 18 C 10.977207 18.71453 11.279984 19.395774 11.677734 20.021484 L 11.683594 20.03125 C 11.819644 20.24359 11.966307 20.448924 12.123047 20.646484 C 12.282837 20.849134 12.452993 21.043406 12.632812 21.228516 C 12.805343 21.405996 12.986561 21.574815 13.175781 21.734375 C 13.366141 21.893855 13.564301 22.043774 13.769531 22.183594 C 13.925651 22.293844 14.08592 22.398084 14.25 22.496094 C 14.40339 22.581594 14.55973 22.661768 14.71875 22.736328 L 14.724609 22.740234 C 14.847409 22.799634 14.971796 22.855613 15.097656 22.908203 L 15.101562 22.910156 C 15.203523 22.952756 15.306416 22.993156 15.410156 23.03125 L 15.416016 23.033203 C 15.544356 23.080303 15.673967 23.124004 15.804688 23.164062 C 15.909487 23.196362 16.014984 23.226306 16.121094 23.253906 L 16.128906 23.255859 C 16.264716 23.290959 16.401492 23.322209 16.539062 23.349609 C 16.644772 23.370109 16.750932 23.388297 16.857422 23.404297 C 16.988452 23.425397 17.119993 23.442931 17.251953 23.457031 C 17.376703 23.469231 17.501743 23.478475 17.626953 23.484375 L 17.640625 23.484375 C 17.755765 23.490375 17.871028 23.493141 17.986328 23.494141 L 18 23.494141 C 18.12898 23.493561 18.257929 23.490142 18.386719 23.482422 C 18.502119 23.477422 18.617382 23.469384 18.732422 23.458984 C 19.605762 23.372984 20.457207 23.134296 21.248047 22.753906 L 21.263672 22.746094 C 21.428762 22.668694 21.59099 22.585304 21.75 22.496094 C 22.01062 22.342784 22.261723 22.173854 22.501953 21.990234 C 22.615803 21.904234 22.727176 21.815006 22.835938 21.722656 C 23.986633 20.749164 24.817883 19.45231 25.220703 18 L 34 18 L 34 27.935547 C 33.99937 28.524977 33.525187 29 32.935547 29 L 3.0644531 29 C 2.4748131 29 2 28.525187 2 27.935547 L 2 18 z "
       transform="translate(442,156)"
       id="rect4166" />
    <path
       inkscape:connector-curvature="0"
       style="opacity:1;fill:#e8f1f5;fill-opacity:0.55029583;stroke:none"
       d="m 444,174 0,9.93555 c 0,0.58964 0.47481,1.06445 1.06445,1.06445 l 29.8711,0 C 475.52519,185 476,184.52519 476,183.93555 L 476,174 l -8.78125,0 a 7.5,7.5 0 0 1 -3.46875,4.49609 7.5,7.5 0 0 1 -7.5,0 A 7.5,7.5 0 0 1 452.7793,174 L 444,174 Z"
       id="rect4168" />
    <path
       style="opacity:1;fill:#e8f1f5;fill-opacity:0.88757396;stroke:none"
       d="M 18 1.0996094 C 17.616571 1.0996094 17.233256 1.2472128 16.939453 1.5410156 L 11.636719 6.84375 C 11.049113 7.4313557 11.049113 8.377238 11.636719 8.9648438 C 12.224324 9.5524495 13.170207 9.5524495 13.757812 8.9648438 L 16.5 6.2226562 L 16.5 16.914062 C 16.5 17.745062 17.169 18.414062 18 18.414062 C 18.831 18.414062 19.5 17.745062 19.5 16.914062 L 19.5 6.2226562 L 22.242188 8.9648438 C 22.829793 9.5524495 23.775676 9.5524495 24.363281 8.9648438 C 24.950887 8.377238 24.950887 7.4313557 24.363281 6.84375 L 19.060547 1.5410156 C 18.766744 1.2472128 18.383429 1.0996094 18 1.0996094 z "
       id="rect4232"
       transform="translate(442,156)" />
  </g>
  <g
     inkscape:label="mimetypes"
     transform="translate(-442,-156)"
     inkscape:groupmode="layer"
     id="layer14" />
  <g
     inkscape:label="emblems"
     transform="translate(-442,-156)"
     inkscape:groupmode="layer"
     id="layer15"
     style="display:inline" />
</svg>

<svg width="36" height="36" version="1.1" xmlns="http://www.w3.org/2000/svg">
<g transform="translate(-442,-156)" fill="#e8f1f5">
<path transform="translate(442,156)" d="m9.125 6c-1.1772 0-2.3578 1.2321-3.125 2.125l-5.4355 6.3262c-0.3888 0.3888-0.56445 0.76389-0.56445 1.4238v13c0 1.1772 0.94775 2.125 2.125 2.125h31.75c1.1772 0 2.125-0.94775 2.125-2.125v-12.656c0-0.5325-0.16667-0.87425-0.41992-1.2305l-5.5801-6.8633c-0.74263-0.91346-1.9634-2.125-3.1406-2.125h-0.62305c0.39573 0.60634 0.57771 1.3043 0.55859 2h0.10547c0.59134 0 1.0611 0.35481 1.4316 0.79297l4.5801 5.8418c0.8062 0.91668 0.67583 1.3652-0.35742 1.3652h-7.0547-2c0 3.0376-2.4624 5.5-5.5 5.5s-5.5-2.4624-5.5-5.5h-2-7.459c-0.59134 0-0.91704-0.52379-0.10352-1.5039l4.5312-5.4609c0.54623-0.65808 1.1886-0.94122 1.7383-1.0059-0.0253-0.70529 0.15534-1.4144 0.55664-2.0293h-0.63867zm-7.125 12h8.7793c0.19791 0.71453 0.50069 1.3958 0.89844 2.0215l0.00586 0.009766c0.13605 0.21234 0.28271 0.41767 0.43945 0.61523 0.15979 0.20265 0.32995 0.39692 0.50976 0.58203 0.17253 0.17748 0.35375 0.3463 0.54297 0.50586 0.19036 0.15948 0.38852 0.3094 0.59375 0.44922 0.15612 0.11025 0.31639 0.21449 0.48047 0.3125 0.15339 0.0855 0.30973 0.16567 0.46875 0.24023l0.005859 0.003906c0.1228 0.0594 0.24719 0.11538 0.37305 0.16797l0.003906 0.001953c0.10196 0.0426 0.20485 0.083 0.30859 0.12109l0.00586 0.001953c0.12834 0.0471 0.25795 0.090801 0.38867 0.13086 0.1048 0.0323 0.2103 0.062244 0.31641 0.089844l0.007812 0.001953c0.13581 0.0351 0.27259 0.06635 0.41016 0.09375 0.10571 0.0205 0.21187 0.038688 0.31836 0.054688 0.13103 0.0211 0.26257 0.038634 0.39453 0.052734 0.12475 0.0122 0.24979 0.021444 0.375 0.027344h0.013672c0.11514 6e-3 0.2304 0.008766 0.3457 0.009766h0.013672c0.12898-5.8e-4 0.25793-0.003999 0.38672-0.011719 0.1154-5e-3 0.23066-0.013038 0.3457-0.023438 0.87334-0.086 1.7248-0.32469 2.5156-0.70508l0.015625-0.007812c0.16509-0.0774 0.32732-0.16079 0.48633-0.25 0.26062-0.15331 0.51172-0.32224 0.75195-0.50586 0.11385-0.086 0.22522-0.17523 0.33398-0.26758 1.1507-0.97349 1.9819-2.2703 2.3848-3.7227h8.7793v9.9355c-6.3e-4 0.58943-0.47481 1.0645-1.0645 1.0645h-29.871c-0.58964 0-1.0645-0.47481-1.0645-1.0645v-9.9355z" fill-opacity=".85207"/>
<path d="m444 174v9.9356c0 0.58964 0.47481 1.0644 1.0644 1.0644h29.871c0.58964 0 1.0644-0.47481 1.0644-1.0644v-9.9356h-8.7812a7.5 7.5 0 0 1-3.4688 4.4961 7.5 7.5 0 0 1-7.5 0 7.5 7.5 0 0 1-3.4707-4.4961h-8.7793z" fill-opacity=".5503"/>
<path transform="translate(442,156)" d="m18 1.0996c-0.38343 0-0.76674 0.1476-1.0605 0.44141l-5.3027 5.3027c-0.58761 0.58761-0.58761 1.5335 0 2.1211 0.5876 0.58761 1.5335 0.58761 2.1211 0l2.7422-2.7422v10.691c0 0.831 0.669 1.5 1.5 1.5s1.5-0.669 1.5-1.5v-10.691l2.7422 2.7422c0.5876 0.58761 1.5335 0.58761 2.1211 0 0.58761-0.58761 0.58761-1.5335 0-2.1211l-5.3027-5.3027c-0.2938-0.2938-0.67712-0.44141-1.0605-0.44141z" fill-opacity=".88757"/>
</g>
</svg>
